!!!OTL: EH DASS WIR SCHEIDEN MUESSEN
!!!ARE: Europa, Mitteleuropa, Deutschland
!!!SCT: E1410
!!!YEM: Copyright 1995, estate of Helmut Schaffrath.
**kern
*ICvox
*Ivox
*M4/4
*k[]
*C:
{4g
=1
4cc
8e
8f
4.a
8g
=2
4g
8f
8g
4e}
{4g
=3
4cc
8e
8f
4.a
8g
=4
4g
8f
8g
4e}
{4g
=5
4.f#
8f#
4g
4a
=6
2b
4a}
{4g
=7
4.f#
8f#
4g
4a
=8
2b
4a}
{4g
=9
4.cc
8g
4.ee
8g
=10
4f
8a
8g
4e
8r}
{8g
=11
4.cc
8g
8.ee
16dd
8cc
8a
=12
4g
8f
8d
4c}
==
!!!AGN: Staende -, Soldaten - Lied, Krieg; Studenten - Lied
!!!ONB: ESAC (Essen Associative Code) Database: ERK3
!!!AMT: simple quadruple
!!!AIN: vox
!!!EED: Helmut Schaffrath
!!!EEV: 1.0
*-
